X:1
T:Title
%%score { ( 1 4 ) | ( 2 3 ) }
L:1/8
M:4/4
K:G
V:1 treble nm="Grand Piano"
V:4 treble 
V:2 bass 
V:3 bass 
V:1
 z4 z2[Q:1/4=100] Bc | d2 BA G2 AA | [B,D]3 E [G,B,D]2 [G,DG]A | B2 BB c2 A2 |[M:3/4] d6 | %5
[M:1/4] Bc |[M:4/4] d2 BA [B,DG]2 [CA]A | [B,D]3 [CE] [B,D]2 [B,G][CA] | [DB]2 [Ec]2 [CA]2 [CA]2 | %9
[M:3/4] [B,G]6 |[M:1/4] [DA]A |[M:4/4] B2 dd ^c2 B2 | A3 G F2 D2 | F2 FF G2 EE |[M:3/4] [A,DA]6 | %15
[M:1/4] [DA]A |[M:4/4] B2 dd ^cc[DB]B | A3 G F2 D2 | F2 F2 [^CG]2 E2 |[M:3/4] A6 |[M:1/4] D2 | %21
[M:4/4] z2 G2 z4 | [DGB]3 [CAc] [B,Bd]2 [Ad]2 | [Ac][Ac][Ac]c [B,GB]2 [DGB]2 |[M:3/4] G2 z2 z2 | %25
[M:1/4] [CD]2 |[M:4/4] [B,DG]2 [CG]2 [DFA]2 [DFA][DFA] | [DGB]3 [CAc] [B,Bd]2 [EGc]2 | %28
 [EGB]2 [EGc]2 [CGA]2 [CFA]2 |[M:3/4] [B,DG]6 |] %30
V:2
 z4 z2 [G,D]2 | [B,D]2 z2 z2 .C2 | z2 z C G,,2 B,,[D,F,D] | [G,D]2 [G,D=F][G,DF] [G,CE]2 [G,C^F]2 | %4
[M:3/4] [G,B,G]6 |[M:1/4][K:bass] [G,D]2 |[M:4/4] [G,B,D]2 DC G,2 z C | %7
 [G,,G,]4 [G,,G,]2 [G,,G,]2 | [G,,G,]2 [C,G,]2 [D,G,]2 [D,F,]2 |[M:3/4] [G,,G,]6 | %10
[M:1/4] z[K:treble] D |[M:4/4] [G,D]2 [B,DG][B,DG] [A,DG]2[K:bass] [G,D]2 | %12
 [A,D]3- [E,A,D] [D,A,D]2 [D,F,]2 | [D,A,D]2 [D,A,D][D,A,D] [E,A,^C]2 CC |[M:3/4] F,6 | %15
[M:1/4] z[K:treble] D |[M:4/4] [G,D]2 GG GG[K:bass] z D | [A,D]3- [E,A,D] [D,A,D]2 [D,F,]2 | %18
 [D,A,D]2 [D,A,D]2 [A,,A,]2 [^C,A,]2 |[M:3/4] [D,F,D]6 |[M:1/4] [D,C]D, | %21
[M:4/4] G,,2 E,E, D,2 C,2 | B,,3 A,, G,,2 [D,F,]2 | [E,G,]2 z[K:treble] A G,2[K:bass] B,,2 | %24
[M:3/4] z2[K:treble] FE F2 |[M:1/4][K:bass] D,2 |[M:4/4] G,,2 E,2 D,2 C,C, | B,,3 A,, G,,2 C,2 | %28
 E,2 A,,2 D,2 D,2 |[M:3/4] G,,6 |] %30
V:3
 z4 z2 z A, | G,2- [G,D][G,CD] [G,B,D]2 G,-[G,C] | G,,4 z4 | x8 |[M:3/4] x6 |[M:1/4][K:bass] z A, | %6
[M:4/4] z2 G,2 z2 G,2 | x8 | x8 |[M:3/4] x6 |[M:1/4] [D,F,]2[K:treble] |[M:4/4] x6[K:bass] x2 | %12
 F,4 z4 | z4 z2 [G,A,]2 |[M:3/4] x6 |[M:1/4] F,2[K:treble] |[M:4/4] z2 [B,D]2 [A,D]2[K:bass] G,2 | %17
 F,4 z4 | x8 |[M:3/4] x6 |[M:1/4] x2 |[M:4/4] x8 | x8 | z2 [F,A,]2[K:treble] z4[K:bass] | %24
[M:3/4] D,6[K:treble] |[M:1/4][K:bass] x2 |[M:4/4] x8 | x8 | x8 |[M:3/4] x6 |] %30
V:4
 x8 | x8 | G,4 z4 | x8 |[M:3/4] x6 |[M:1/4] x2 |[M:4/4] x8 | x8 | x8 |[M:3/4] x6 |[M:1/4] x2 | %11
[M:4/4] x8 | x8 | x8 |[M:3/4] x6 |[M:1/4] x2 |[M:4/4] x8 | x8 | x8 |[M:3/4] x6 |[M:1/4] z C | %21
[M:4/4] [B,DG]2 CC [DFA]2 [DFA]2 | x8 | x8 |[M:3/4] [DA]6 |[M:1/4] x2 |[M:4/4] x8 | x8 | x8 | %29
[M:3/4] x6 |] %30

